X:279
T:Jackie Tar
M:4/4
L:1/8
R:reel
D:Joe McKenna: The Irish Low Whistle
Z:Michael Abraham Shulman
K:Em
d|e2ed efge|dBBA B2dB|ABde (3fgf ef|d2 A2 A3 d|
~e3f {e}g2fe|dBBA BcdB|ABBA GBdB|{G}AG{D}ED E3:|
B|(3EFG {A}BG EGBG|EGBc {A}BGE2|DFAB A2FA|d^cBA GFED|
GA{G}BA (3Bcd gd|B2BA BcdB|ABBA GBdB|{G}AG{D}ED E3:|

